X: 176
T: No_85_Song_of_the_Crab_Medicine-bag.krn
N: Derived from No_85_Song_of_the_Crab_Medicine-bag.krn
%%abc-version 2.0
%%abcx-abcm2ps-target-version 5.9.1 (29 Sep 2008)
%%abc-creator hum2abc beta
%%abcx-conversion-date 2019/03/15 08:29:13
%%humdrum-veritas 3264199717
%%humdrum-veritas-data 29638117
%%linebreak <none>
%%barnumbers 0
L: 1/8
M: 2/4
%%staves {1 2}
V: 1 clef=bass
V: 2 clef=bass
K: C
[V:1] B,B, [I:setbarnb 1]| 
[V:2] z2 | 
[V:1] B,3B, | 
[V:2] G,,G,, G,,G,, | 
[V:1] B,A, (3A,A,A, ||  
[V:2] G,,G,, G,,G,, ||  
[V:1] [M:3/4]B,3A, A,A, | 
[V:2] [M:3/4]z6 | 
[V:1] G,3G,G,2 ||  
[V:2] z6 ||  
[V:1] [M:2/4]G,3G, | 
[V:2] [M:2/4]z4 | 
[V:1] G,2G,G, ]|:  
[V:2] z4 ]|:  
[V:1] G,3G, ||  
[V:2] z4 ||  
[V:1] [M:3/4]G,G, (3^F,G,G, G,G, | 
[V:2] [M:3/4]z6 | 
[V:1] F,3F,F,2 ||  
[V:2] z6 ||  
[V:1] [M:2/4]F,3F, | 
[V:2] [M:2/4]z4 | 
[V:1] F,2F,F, | 
[V:2] z4 | 
[V:1] F,3F, | 
[V:2] z4 | 
[V:1] F,D, (3D,D,D, | 
[V:2] z4 | 
[V:1] D,3D, | 
[V:2] z4 | 
[V:1] D,2D,D, | 
[V:2] z4 | 
[V:1] C,3C, | 
[V:2] z4 | 
[V:1] C,2C,C, | 
[V:2] z4 | 
[V:1] C,3C, | 
[V:2] z4 | 
[V:1] C,C, (3A,,A,,A,, | 
[V:2] z4 | 
[V:1] A,,3A,, | 
[V:2] z4 | 
[V:1] A,,2A,,A,, | 
[V:2] z4 | 
[V:1] (3CCC CA, | 
[V:2] z4 | 
[V:1] G,3G, | 
[V:2] z4 | 
[V:1] G,2A,A, | 
[V:2] z4 | 
[V:1] G,3G, | 
[V:2] z4 | 
[V:1] G,2G,F, | 
[V:2] z4 | 
[V:1] F,3D, | 
[V:2] z4 | 
[V:1] D,2G,G, :|]  
[V:2] z4 :|]  



